X:38
T:Polonäs efter Pehr Andersson Bild 13 nr 37
S:efter Pehr Andersson
B:Spelmansbok Ma 1 efter Pehr Andersson daterad 1731
B:FMK - katalog Ma1 bild 13
O:Måstorp, Närke
R:Slängpolska
Z:Nils L
M:3/4
L:1/8
K:Am
AB cB cA | e2 dc BA | e2 dc BA | Ac BA B^G | A2 A,4 ::
cd ed ec | fe dc BG | cd ed ec | fe dc BG | 
AB cB cA | "^fjärdedelar?"d2 cB AE | cd ed ec | e2 ag fe | 
dc BA B^G | A^G A4 :|

